!!!COM: Music21
!!!OTL: Muiñeira de Redondela
!!!OMV: pezas_muineiras_muineira-de-redondela_muineira-de-redondela-partitura.musicxml
**kern
*I"Bagpipes
*I'Bag
*clefG^2
*k[]
*M6/8
=1
!LO:TX:a:t=Allegro
*MM180
!LO:TX:a:t=[quarter]=180
2r
8cccL
8bbJ
=||
8aa
[4gg
8ggL]
8ccc
8bbJ
=
8aa
[4gg
8ggL]
8ccc
8bbJ
=
8aaL
8gg
8ffJ
8ffL
8ee
8ffJ
=
8aa
[4gg
8ggL]
8ccc
8bbJ
=
8aa
[4gg
8ggL]
8ccc
8bbJ
=
8aa
[4gg
8ggL]
8ccc
8bbJ
!!linebreak:original
=
8aaL
8gg
8ffJ
8aaL
8gg
8ffJ
=
2ee
8cccL
8bbJ
=||
8aa
[4gg
8ggL]
8ccc
8bbJ
=
8aa
[4gg
8ggL]
8ccc
8bbJ
=
8aaL
8gg
8ffJ
8ffL
8ee
8ffJ
=
8aa
[4gg
8ggL]
8ccc
8bbJ
=
8aa
[4gg
8ggL]
8ccc
8bbJ
!!linebreak:original
=
8aa
[4gg
8ggL]
8ccc
8bbJ
!!linebreak:original
=
8aaL
8gg
8ffJ
8aaL
8gg
8ffJ
=
4.ee
8ggL
8ee
8ggJ
=||
8ggL
8ee
8ggJ
8cccL
8bb
8aaJ
=
8ggL
8ee
8ggJ
8bbL
8aa
8ggJ
=
8ffL
8dd
8ffJ
8aaL
8gg
8ffJ
=
4gg
8ee
8ggL
8ee
8ggJ
!!linebreak:original
=
8ggL
8ee
8ggJ
8cccL
8bb
8aaJ
=
8ggL
8ee
8ggJ
8bbL
8aa
8ggJ
=
8ffL
8dd
8ffJ
8aaL
8gg
8ffJ
=
4.ee
8ggL
8ee
8ggJ
=||
8ggL
8ee
8ggJ
8cccL
8bb
8aaJ
=
8ggL
8ee
8ggJ
8bbL
8aa
8ggJ
=
8ffL
8dd
8ffJ
8aaL
8gg
8ffJ
!!linebreak:original
=
4gg
8ee
8ggL
8ee
8ggJ
!!linebreak:original
=
8ggL
8ee
8ggJ
8cccL
8bb
8aaJ
=
8ggL
8ee
8ggJ
8bbL
8aa
8ggJ
=
8ffL
8dd
8ffJ
8aaL
8gg
8ffJ
=
2ee
8cccL
8bbJ
=||
8ee
8r
2r
==
*-
